images/instagram.svg

<svg width="25" height="25" viewBox="0 0 25 25" fill="none" xmlns="http://www.w3.org/2000/svg">
<g clip-path="url(#clip0_355_31)">
<path d="M1.56244 1.70122C-0.40214 3.74185 -5.69224e-05 5.90956 -5.69224e-05 12.495C-5.69224e-05 17.9637 -0.954224 23.446 4.03953 24.7366C5.5989 25.1377 19.4156 25.1377 20.9729 24.7346C23.052 24.1981 24.7437 22.5116 24.9749 19.571C25.0072 19.1606 25.0072 5.83664 24.9739 5.41789C24.7281 2.2856 22.7999 0.480389 20.2593 0.114764C19.677 0.0303889 19.5604 0.00538891 16.5729 0.000180572C5.97598 0.00538891 3.65307 -0.466486 1.56244 1.70122Z" fill="url(#paint0_linear_355_31)"/>
<path d="M12.4978 3.26965C8.71551 3.26965 5.12385 2.93319 3.75197 6.45403C3.1853 7.90819 3.2676 9.79674 3.2676 12.5009C3.2676 14.8738 3.19155 17.104 3.75197 18.5467C5.12072 22.0697 8.74155 21.7322 12.4957 21.7322C16.1176 21.7322 19.852 22.1092 21.2405 18.5467C21.8082 17.078 21.7249 15.2176 21.7249 12.5009C21.7249 8.89465 21.9238 6.56653 20.1749 4.81861C18.404 3.04778 16.0093 3.26965 12.4936 3.26965H12.4978ZM11.6707 4.93319C19.5603 4.92069 20.5645 4.04361 20.0103 16.228C19.8134 20.5374 16.5322 20.0644 12.4988 20.0644C5.14468 20.0644 4.93322 19.854 4.93322 12.4967C4.93322 5.05403 5.51655 4.93736 11.6707 4.93111V4.93319ZM17.4249 6.46548C16.8134 6.46548 16.3176 6.96132 16.3176 7.57278C16.3176 8.18424 16.8134 8.68007 17.4249 8.68007C18.0363 8.68007 18.5322 8.18424 18.5322 7.57278C18.5322 6.96132 18.0363 6.46548 17.4249 6.46548ZM12.4978 7.76028C9.88009 7.76028 7.75822 9.88319 7.75822 12.5009C7.75822 15.1186 9.88009 17.2405 12.4978 17.2405C15.1155 17.2405 17.2363 15.1186 17.2363 12.5009C17.2363 9.88319 15.1155 7.76028 12.4978 7.76028ZM12.4978 9.42382C16.5655 9.42382 16.5707 15.578 12.4978 15.578C8.43114 15.578 8.42489 9.42382 12.4978 9.42382Z" fill="white"/>
</g>
<defs>
<linearGradient id="paint0_linear_355_31" x1="1.61038" y1="23.4034" x2="24.8452" y2="3.29391" gradientUnits="userSpaceOnUse">
<stop stop-color="#FFDD55"/>
<stop offset="0.5" stop-color="#FF543E"/>
<stop offset="1" stop-color="#C837AB"/>
</linearGradient>
<clipPath id="clip0_355_31">
<rect width="25" height="25" fill="white"/>
</clipPath>
</defs>
</svg>

<svg xmlns="http://www.w3.org/2000/svg" width="25" height="25" fill="none"><g clip-path="url(#a)"><path fill="url(#b)" d="M1.562 1.701C-.402 3.741 0 5.91 0 12.495c0 5.469-.954 10.951 4.04 12.242 1.559.4 15.376.4 16.933-.002 2.079-.537 3.77-2.223 4.002-5.164.032-.41.032-13.734-.001-14.153C24.728 2.286 22.8.48 20.259.115 19.677.03 19.56.005 16.573 0 5.976.005 3.653-.466 1.563 1.701Z"/><path fill="#fff" d="M12.498 3.27c-3.782 0-7.374-.337-8.746 3.184-.567 1.454-.484 3.343-.484 6.047 0 2.373-.076 4.603.484 6.046 1.369 3.523 4.99 3.185 8.744 3.185 3.622 0 7.356.377 8.745-3.185.567-1.469.484-3.33.484-6.046 0-3.606.199-5.934-1.55-7.682-1.771-1.771-4.166-1.55-7.681-1.55h.004Zm-.827 1.663c7.89-.012 8.893-.89 8.34 11.295-.198 4.31-3.479 3.836-7.512 3.836-7.354 0-7.566-.21-7.566-7.567 0-7.443.584-7.56 6.738-7.566v.002Zm5.754 1.532a1.107 1.107 0 1 0 0 2.215 1.107 1.107 0 0 0 0-2.215ZM12.498 7.76a4.74 4.74 0 0 0 0 9.48 4.739 4.739 0 0 0 4.738-4.74 4.74 4.74 0 0 0-4.738-4.74Zm0 1.664c4.068 0 4.073 6.154 0 6.154-4.067 0-4.073-6.154 0-6.154Z"/></g><defs><linearGradient id="b" x1="1.61" x2="24.845" y1="23.403" y2="3.294" gradientUnits="userSpaceOnUse"><stop stop-color="#FD5"/><stop offset=".5" stop-color="#FF543E"/><stop offset="1" stop-color="#C837AB"/></linearGradient><clipPath id="a"><path fill="#fff" d="M0 0h25v25H0z"/></clipPath></defs></svg>
